icons/ui_zoom_in.svg

<svg width="48" height="48" viewBox="0 0 48 48" fill="none" xmlns="http://www.w3.org/2000/svg">
<path d="M27.9999 16V20H31.9999V22H27.9999V26H25.9999V22H21.9999V20H25.9999V16H27.9999Z" fill="black"/>
<path fill-rule="evenodd" clip-rule="evenodd" d="M42.0001 21C42.0001 29.2843 35.2843 36 27.0001 36C23.2178 36 19.7624 34.6001 17.1239 32.2902L15.2956 34.1185L15.3 36.9426L8.82833 43.4143L4.58569 39.1716L11.1095 32.6479L13.8168 32.7689L15.7097 30.876C13.3999 28.2375 12.0001 24.7822 12.0001 21C12.0001 12.7157 18.7158 6 27.0001 6C35.2843 6 42.0001 12.7157 42.0001 21ZM40.0001 21C40.0001 28.1797 34.1798 34 27.0001 34C19.8204 34 14.0001 28.1797 14.0001 21C14.0001 13.8203 19.8204 8 27.0001 8C34.1798 8 40.0001 13.8203 40.0001 21ZM7.41412 39.1716L8.82833 40.5858L13.2987 36.1155L13.2966 34.7477L11.9005 34.6852L7.41412 39.1716Z" fill="black"/>
</svg>

<svg
  xmlns="http://www.w3.org/2000/svg"
  width="24"
  height="24"
  viewBox="0 0 24 24"
  fill="none"
  stroke="currentColor"
  stroke-width="2"
  stroke-linecap="round"
  stroke-linejoin="round"
>
  <path d="M28 16v4h4v2h-4v4h-2v-4h-4v-2h4v-4z" />
  <path
    fill-rule="evenodd"
    d="M42 21c0 8.284-6.716 15-15 15-3.782 0-7.238-1.4-9.876-3.71l-1.828 1.828.004 2.825-6.472 6.471-4.242-4.242 6.524-6.524 2.707.12 1.893-1.892A14.94 14.94 0 0 1 12 21c0-8.284 6.716-15 15-15s15 6.716 15 15m-2 0c0 7.18-5.82 13-13 13s-13-5.82-13-13S19.82 8 27 8s13 5.82 13 13M7.414 39.172l1.414 1.414 4.47-4.47-.001-1.368-1.397-.063z"
    clip-rule="evenodd"
  />
</svg>
